src/48x48/places/folder-gruvbox-original-red-video.svg

<?xml version="1.0" encoding="UTF-8"?>
<svg width="48" height="48" version="1" xmlns="http://www.w3.org/2000/svg">
 <rect x="4" y="17" width="40" height="26" rx="2" ry="2" opacity=".2"/>
 <path d="m4 34c0 1.108 0.892 2 2 2h36c1.108 0 2-0.892 2-2v-22c0-1.108-0.892-2-2-2h-18c-3 0-4-4-7-4h-11c-1.108 0-2 0.892-2 2" fill="#9d0006"/>
 <rect x="4" y="15" width="40" height="26" rx="2" ry="2" opacity=".2"/>
 <rect x="6" y="13" width="36" height="16" rx="2" ry="2" fill="#efd2b3"/>
 <rect x="4" y="16" width="40" height="26" rx="2" ry="2" fill="#fb4934"/>
 <path d="m6 6c-1.108 0-2 0.892-2 2v1c0-1.108 0.892-2 2-2h11c3 0 4 4 7 4h18c1.108 0 2 0.892 2 2v-1c0-1.108-0.892-2-2-2h-18c-3 0-4-4-7-4z" fill="#efd2b3" opacity=".1"/>
 <path d="m18 24c-0.554 0-1 0.446-1 1v8c0 0.554 0.446 1 1 1h9c0.554 0 1-0.446 1-1v-4-4c0-0.554-0.446-1-1-1h-9zm10 5 4 4v-7.5l-4 3.5z" fill="#442e2d"/>
</svg>

<svg xmlns="http://www.w3.org/2000/svg" width="48" height="48" version="1">
 <rect style="opacity:0.2" width="40" height="26" x="4" y="17" rx="2" ry="2"/>
 <path style="fill:#9d0006" d="M 4,34 C 4,35.108 4.892,36 6,36 H 42 C 43.108,36 44,35.108 44,34 V 12 C 44,10.892 43.108,10 42,10 H 24 C 21,10 20,6 17,6 H 6 C 4.892,6 4,6.892 4,8"/>
 <rect style="opacity:0.2" width="40" height="26" x="4" y="15" rx="2" ry="2"/>
 <rect style="fill:#efd2b3" width="36" height="16" x="6" y="13" rx="2" ry="2"/>
 <rect style="fill:#fb4934" width="40" height="26" x="4" y="16" rx="2" ry="2"/>
 <path style="opacity:0.1;fill:#efd2b3" d="M 6,6 C 4.892,6 4,6.892 4,8 V 9 C 4,7.892 4.892,7 6,7 H 17 C 20,7 21,11 24,11 H 42 C 43.108,11 44,11.892 44,13 V 12 C 44,10.892 43.108,10 42,10 H 24 C 21,10 20,6 17,6 Z"/>
 <path style="fill:#442e2d" d="M 18 24 C 17.446 24 17 24.446 17 25 L 17 33 C 17 33.554 17.446 34 18 34 L 27 34 C 27.554 34 28 33.554 28 33 L 28 29 L 28 25 C 28 24.446 27.554 24 27 24 L 18 24 z M 28 29 L 32 33 L 32 25.5 L 28 29 z"/>
</svg>
